components/AnnouncementBar/logos/color-square.svg

<svg xmlns="http://www.w3.org/2000/svg" width="366" height="89" viewBox="0 0 366 89">
  <path fill="#242627" d="M74.2 0H14.8C6.6 0 0 6.7 0 14.8v59.4C0 82.4 6.7 89 14.8 89h59.4C82.4 89 89 82.3 89 74.2V14.8C89.1 6.6 82.4 0 74.2 0Zm-1.3 68.1c0 2.6-2.1 4.7-4.7 4.7H20.9c-2.6 0-4.7-2.1-4.7-4.7V20.9c0-2.6 2.1-4.7 4.7-4.7h47.2c2.6 0 4.7 2.1 4.7 4.7v47.2h.1ZM56.7 53.9c0 1.5-1.2 2.7-2.7 2.7H35.1c-1.5 0-2.7-1.2-2.7-2.7V35c0-1.5 1.2-2.7 2.7-2.7H54c1.5 0 2.7 1.2 2.7 2.7v18.9Zm73.6 19.8c-5.3 0-10.4-2-13.9-5.6-3.2-3.2-5-7.3-5-11.7h5.3c0 2.9 1.2 5.7 3.4 7.9 2.6 2.6 6.3 4 10.2 4 7.5 0 13.5-5.2 13.5-11.6 0-4.8-2.7-8.6-15.6-11.6-5.3-1.2-8.8-2.9-11.2-5.1-2.5-2.4-3.8-5.7-3.8-9.9 0-8.4 7.5-15.2 16.7-15.2 4.4 0 8.6 1.5 11.7 4.3 3.3 2.9 5 6.7 5 10.8h-5.1c0-5.4-5.1-9.8-11.4-9.8-6.2 0-11.4 4.5-11.4 9.8 0 4.9 1.7 7.7 10.8 9.9 9.8 2.3 19.7 6 19.8 16.8 0 4.6-2 8.9-5.6 12.1-3.6 3.2-8.3 4.9-13.4 4.9Zm63 15.3V65.5h-.2c-3.5 5.3-9.4 8-15.7 8-12.1 0-21.7-9.1-21.7-21.3 0-12.1 9.8-21.1 21.7-21.1 6.3 0 12.3 2.7 15.7 8.1h.2v-7.1h5.2v56.7h-5.2v.2Zm-15.9-53.2c-9.6 0-16.5 7.2-16.5 16.7s7.1 16.4 16.5 16.4c9.2 0 16.2-7.5 16.2-16.5s-7-16.6-16.2-16.6Zm111.1 36.8v-7.1h-.2c-3.5 5.3-9.5 8-15.7 8-12.1 0-21.7-9.1-21.7-21.3 0-12.1 9.8-21.1 21.7-21.1 6.4 0 12.3 2.7 15.7 8.1h.2v-7.1h5.2v40.4h-5.2v.1Zm-15.8-36.8c-9.6 0-16.5 7.2-16.5 16.7s7.1 16.4 16.5 16.4c9.2 0 16.2-7.5 16.2-16.5-.1-9-7.1-16.6-16.2-16.6ZM309.2 49v23.6H304V32.2h5.2V38h.1c2.2-5.2 6.1-6.5 11.4-6.9v5.5c-7.1.6-11.5 5.1-11.5 12.4Zm55.7 5.3h-36.8c.4 8 7.8 14.6 15.7 14.6 6.2 0 12.3-3.5 14.5-9.5h5.5c-2.9 8.4-10.9 14.2-19.9 14.2-11.7 0-21-9.5-21-21.1 0-11.5 9.4-21.3 21-21.3 11.8 0 21.2 10 21.2 21.7-.1.4-.2.9-.2 1.4Zm-21-18.5c-8.1 0-14.5 5.9-15.7 13.8h31.5c-1.4-7.9-7.7-13.8-15.8-13.8ZM238.6 72.7v-6.3h-.1c-2.4 5-7.6 7.3-13 7.3-5.3 0-10.6-1.9-14-6.1-2.9-3.6-3.6-8.5-3.6-13.1V32.1h5.2v22.3c0 8.4 3 14.6 12.3 14.6 3.4 0 6.1-.9 8.6-3.3 3.6-3.4 4.2-7.4 4.2-12.2V32h5.2v40.6h-4.8v.1Z"/>
</svg>

<svg width="366" height="89" viewBox="0 0 366 89" fill="none" xmlns="http://www.w3.org/2000/svg">
<path d="M74.2 0H14.8C6.6 0 0 6.7 0 14.8V74.2C0 82.4 6.7 89 14.8 89H74.2C82.4 89 89 82.3 89 74.2V14.8C89.1 6.6 82.4 0 74.2 0ZM72.9 68.1C72.9 70.7 70.8 72.8 68.2 72.8H20.9C18.3 72.8 16.2 70.7 16.2 68.1V20.9C16.2 18.3 18.3 16.2 20.9 16.2H68.1C70.7 16.2 72.8 18.3 72.8 20.9V68.1H72.9ZM56.7 53.9C56.7 55.4 55.5 56.6 54 56.6H35.1C33.6 56.6 32.4 55.4 32.4 53.9V35C32.4 33.5 33.6 32.3 35.1 32.3H54C55.5 32.3 56.7 33.5 56.7 35V53.9Z" fill="#242627"/>
<path d="M130.3 73.7C125 73.7 119.9 71.7 116.4 68.1C113.2 64.9 111.4 60.8 111.4 56.4H116.7C116.7 59.3 117.9 62.1 120.1 64.3C122.7 66.9 126.4 68.3 130.3 68.3C137.8 68.3 143.8 63.1 143.8 56.7C143.8 51.9 141.1 48.1 128.2 45.1C122.9 43.9 119.4 42.2 117 40C114.5 37.6 113.2 34.3 113.2 30.1C113.2 21.7 120.7 14.9 129.9 14.9C134.3 14.9 138.5 16.4 141.6 19.2C144.9 22.1 146.6 25.9 146.6 30H141.5C141.5 24.6 136.4 20.2 130.1 20.2C123.9 20.2 118.7 24.7 118.7 30C118.7 34.9 120.4 37.7 129.5 39.9C139.3 42.2 149.2 45.9 149.3 56.7C149.3 61.3 147.3 65.6 143.7 68.8C140.1 72 135.4 73.7 130.3 73.7Z" fill="#242627"/>
<path d="M193.3 89V65.5H193.1C189.6 70.8 183.7 73.5 177.4 73.5C165.3 73.5 155.7 64.4 155.7 52.2C155.7 40.1 165.5 31.1 177.4 31.1C183.7 31.1 189.7 33.8 193.1 39.2H193.3V32.1H198.5V88.8H193.3V89ZM177.4 35.8C167.8 35.8 160.9 43 160.9 52.5C160.9 62 168 68.9 177.4 68.9C186.6 68.9 193.6 61.4 193.6 52.4C193.6 43.4 186.6 35.8 177.4 35.8Z" fill="#242627"/>
<path d="M288.5 72.6V65.5H288.3C284.8 70.8 278.8 73.5 272.6 73.5C260.5 73.5 250.9 64.4 250.9 52.2C250.9 40.1 260.7 31.1 272.6 31.1C279 31.1 284.9 33.8 288.3 39.2H288.5V32.1H293.7V72.5H288.5V72.6ZM272.7 35.8C263.1 35.8 256.2 43 256.2 52.5C256.2 62 263.3 68.9 272.7 68.9C281.9 68.9 288.9 61.4 288.9 52.4C288.8 43.4 281.8 35.8 272.7 35.8Z" fill="#242627"/>
<path d="M309.2 49V72.6H304V32.2H309.2V38H309.3C311.5 32.8 315.4 31.5 320.7 31.1V36.6C313.6 37.2 309.2 41.7 309.2 49Z" fill="#242627"/>
<path d="M364.9 54.2999H328.1C328.5 62.2999 335.9 68.8999 343.8 68.8999C350 68.8999 356.1 65.3999 358.3 59.3999H363.8C360.9 67.7999 352.9 73.6 343.9 73.6C332.2 73.6 322.9 64.1 322.9 52.5C322.9 41 332.3 31.2 343.9 31.2C355.7 31.2 365.1 41.1999 365.1 52.8999C365 53.2999 364.9 53.7999 364.9 54.2999ZM343.9 35.8C335.8 35.8 329.4 41.7 328.2 49.6H359.7C358.3 41.7 352 35.8 343.9 35.8Z" fill="#242627"/>
<path d="M238.6 72.7V66.4H238.5C236.1 71.4 230.9 73.7 225.5 73.7C220.2 73.7 214.9 71.8 211.5 67.6C208.6 64 207.9 59.1 207.9 54.5V32.1H213.1V54.4C213.1 62.8 216.1 69 225.4 69C228.8 69 231.5 68.1 234 65.7C237.6 62.3 238.2 58.3 238.2 53.5V32H243.4V72.6H238.6V72.7Z" fill="#242627"/>
</svg>
